X: 103
M: C
L: 1/8
K: C
E |\
e |\
gc (e/d/c) gc (e/d/c) | BGBd gdBG | gc (e/d/c) (eg)ec | Gefd c/c/c (ce) |
cegc' gece | dBGB dfed | cGEG ABcE | FDGE C/C/C C |]


